src/assets/logo_line.svg

<svg xmlns="http://www.w3.org/2000/svg" viewBox="0 0 50.84 50.84"><defs><style>.cls-3{stroke:#000;stroke-miterlimit:10;stroke-width:.5px;fill:#fff}</style></defs><g id="Layer_2" data-name="Layer 2"><g id="Layer_1-2" data-name="Layer 1"><g opacity=".3"><path d="M33.17 49.5l-.24.08V1.26l.24.07V49.5z"/><path d="M.54 30.03l-.04-.24h49.8v.24H.54z"/></g><circle cx="25.42" cy="25.42" r="25.29" stroke="#000" stroke-miterlimit="10" stroke-width=".5" fill="none"/><path class="cls-3" d="M12.44 3.62a25.06 25.06 0 013.86-1.48v17.69l.6-.75a16.56 16.56 0 0110.82-6.46c10.57-1.5 18.19 5.25 20 12.72C50 34.55 45.92 42.77 38 46.42c-5.74 2.65-14.68 2.24-20.17-3.16a17.13 17.13 0 01-5.15-10.38 32.88 32.88 0 01-.23-4.09V4.04zm31.93 26.52a14.14 14.14 0 00-13.72-14.09 14.27 14.27 0 00-14.38 13.88 14.05 14.05 0 1028.1.21zM9 9.94a3.79 3.79 0 01-3.79 3.74A3.92 3.92 0 011.45 9.8a3.92 3.92 0 013.88-3.68A3.79 3.79 0 019 9.94zM3.48 14.61V38a25.29 25.29 0 003.86 5.09V14.55a3.88 3.88 0 01-3.86.06z"/></g></g></svg>

<svg xmlns="http://www.w3.org/2000/svg" viewBox="0 0 50.84 50.84">
  <defs>
    <style>.cls-1{opacity:0.3;}.cls-2{fill:none;}.cls-2,.cls-3{stroke:#000;stroke-miterlimit:10;stroke-width:0.5px;}.cls-3{fill:#fff;}</style>
  </defs>
  <title>logo_line</title>
  <g id="Layer_2" data-name="Layer 2">
    <g id="Layer_1-2" data-name="Layer 1">
      <g class="cls-1">
        <polygon points="33.17 49.5 32.93 49.58 32.93 1.26 33.17 1.33 33.17 49.5"/>
        <polygon points="0.54 30.03 0.5 29.79 50.3 29.79 50.3 30.03 0.54 30.03"/>
      </g>
      <circle class="cls-2" cx="25.42" cy="25.42" r="25.29"/>
      <path class="cls-3" d="M12.44,3.62A25.06,25.06,0,0,1,16.3,2.14V19.83l.6-.75a16.56,16.56,0,0,1,10.82-6.46c10.57-1.5,18.19,5.25,20,12.72C50,34.55,45.92,42.77,38,46.42c-5.74,2.65-14.68,2.24-20.17-3.16a17.13,17.13,0,0,1-5.15-10.38,32.88,32.88,0,0,1-.23-4.09c0-9.59,0-15.17,0-24.75ZM44.37,30.14A14.14,14.14,0,0,0,30.65,16.05,14.27,14.27,0,0,0,16.27,29.93a14.05,14.05,0,1,0,28.1.21Z"/>
      <path class="cls-3" d="M9,9.94a3.79,3.79,0,0,1-3.79,3.74A3.92,3.92,0,0,1,1.45,9.8,3.92,3.92,0,0,1,5.33,6.12,3.79,3.79,0,0,1,9,9.94Z"/>
      <path class="cls-3" d="M3.48,14.61V38a25.29,25.29,0,0,0,3.86,5.09V14.55A3.88,3.88,0,0,1,3.48,14.61Z"/>
    </g>
  </g>
</svg>
